X:1
T:Ferita di dolore
T:Ferita di dolore
T:Marc'Antonio Tornioli
T:Source : Canzonette spirituali a tre voci---Libro Primo---Venetia---Ang.Gardano---1607. Editor : André Vierendeels (21/06/16).
T:Notes : Original clefs : C1, C1, F4 Editorial accidentals above the staff Text by Angelo Grillo (Pietosi affetti)
T:b
T:©
T:©
T:©
C:Marc'Antonio Tornioli
Z:©
%%score { 1 2 3 }
L:1/8
Q:1/4=104
M:2/2
K:F
V:1 treble nm="Soprano 1" snm="S 1"
V:2 treble nm="Soprano 2" snm="S 2"
V:3 bass nm="Bass" snm="B"
V:1
 =B8 | c2 B2 G2 A2 | F8 | E2 A2 FAGF | G8- | G4 ^F4 | A2 A2 A2 AB | c4 c4 | d3 c B2 G2- | %9
w: Fe-|ri- ta di do-|lo-|re, sa- rai co- me sei|pri-|* ma,|nel di- vin par- go-|let- to,|ul- ti- m'in que-|
w: Las-|so, che'in- ci- so|lan-|gue, can- di- do fior di|lat-|* te,|a pe- n'a- per- to'il|cri- me,|all' au- re mat-|
 G2 A2 G4 | A8 :: A2 Bc dcBA | G6 c2 | A4 A2 z2 | z4 z2 d2 | c2 B2 c4- | c2 c2 B2 A2 | B4 d4 | c8 | %19
w: * sto pet-|to.|Ul- ti- ma pia- ga d'im- mor-|ta- le'a-|mo- re,|e|fi- ni- rà|_ sen- za fi-|nir mia|vi-|
w: * tu- ti-|ne.|Per dar ver- mi- glio'a me frut-|to di|san- gue,|ti|po- tes- si'av-|* vi- var co'|pian- ti|mie-|
 d4 A4 | D4 E4 | ^F6 A2 | d2 cB A2 A2 | d3 B A4 | G8 :| %25
w: ta, pie-|to- sa-|men- te'al|suo _ _ _ pie-|to- so'u- ni-|ta.|
w: i, com'|io, dol-|ce Bam-|bin, ti av- vi- ve-|re- * *|i.|
V:2
 z4 G4 | G2 F2 c2 c2 | c2 =BA B4 | c4 z4 | z2 c2 GcBA | B4 A4 | z4 F2 F2 | F2 FG A4 | F2 G3 F E2 | %9
w: Fe-|ri- ta di do-|lo- * * *|re,|sa- rai co- me sei|pri- ma,|nel di-|vin par- go- let-|to ul- ti- m'in|
w: Las-|so, che'in- ci- so|lan- * * *|gue,|can- di- do fior di|lat- te|a pe-|n'a- per- to'il cri-|me, all' au- re|
 EC F4 E2 | F8 :: z4 F2 GA | BAGF _E2 G2 | ^F4 F2 B2 | A2 G2 A4- | A2 A2 G2 F2 | G8- | G4 B4 | %18
w: sue- sto pet- *|to.|Ul- ti- ma|pia- ga d'im- mor- ta- le'a-|mo- re, e|fi- ni- rà|_ sen- za fi-|nir|_ mia|
w: ma- tu- ti- *|ne.|Per dar ver-|mi- glio'a me frut- to di|san- gue, ti|po- tes- si'av-|* vi- var co'|pian-|* ti|
 B4 A4 | B4 ^F4 | G4 A4 |"^-natural" A6 c2 | B2 AG ^F2 F2 | ^FF G3 F/E/ F2 | G8 :| %25
w: vi- *|ta, pie-|to- sa-|men- te'al|suo _ _ _ pie-|to- so'u- ni- * * *|ta.|
w: mie- *|i, com'|io, dol-|ce Bam-|* * * bin, ti|av- vi- ve- * * re-|i.|
V:3
 G,8 | C,2 D,2 E,2 F,2 | D,8 | C,2 F,2 D,F,E,D, | _E,8 | D,8 |"^-natural" F,2 F,2 F,2 F,G, | %7
w: Fe-|ri- ta di do-|lo-|re, sa- rai co- me sei|pri-|ma,|nel di- vin par- go-|
w: Las-|so, che'in- ci- so|lan-|gue, can- di- do fior di|lat-|te,|a pe- n'a- per- to'il|
 A,4 A,,4 | B,,3 A,, G,,2 C,2- | C,2 A,,2 C,4 | F,,8 :: F,2 G,A, B,A,G,F, | _E,4 C,4 | %13
w: let- to,|ul- ti- m'in que-|* sta pet-|to.|Ul- ti- ma pia- ga d'im- mor-|ta- le'a-|
w: cri- me,|all' au- re ma-|* tu- ti-|ne.|Per dar ver- mi- glio'a me frut-|to di|
 D,4 D,2 G,2 | F,2 E,2 F,4- | F,2 F,2 _E,2 D,2 | _E,8- | E,4 D,4 | F,8 | B,,4 D,4 | =B,,4 ^C,4 | %21
w: mo- re, e|fi- ni- rà|_ sen- za fi-|nir|_ mia|vi-|ta, pie-|to- sa-|
w: san- gue, ti|po- tes- si'av-|* vi- var co'|pian-|* ti|mie-|i, com'|io, dol-|
 D,6 A,,2 | B,,2 C,2 D,4- | D,2 G,,2 D,4 | G,,8 :| %25
w: men- te'al|suo pie- to-|* so'u- ni-|ta.|
w: ce Bam-|bin, ti'av- vi-|* ve- re-|i.|

